public/flags/DO.svg

<svg fill="none" height="53" viewBox="0 0 61 53" width="61" xmlns="http://www.w3.org/2000/svg" xmlns:xlink="http://www.w3.org/1999/xlink"><mask id="a" height="43" maskUnits="userSpaceOnUse" width="59" x="1" y="3"><rect fill="#fff" height="41.4393" rx="3.7125" stroke="#fff" stroke-width="1.06071" width="57.9393" x="1.53036" y="3.53036"/></mask><mask id="b" fill="#fff"><path clip-rule="evenodd" d="m27.52 21.2448c-1.6458 1.6597-1.6458 4.3507 0 6.0104s4.3141 1.6597 5.9599 0 1.6458-4.3507 0-6.0104" fill="#fff" fill-rule="evenodd"/></mask><rect fill="#fff" height="41.4393" rx="3.7125" stroke="#f5f5f5" stroke-width="1.06071" width="57.9393" x="1.53036" y="3.53036"/><g mask="url(#a)"><g clip-rule="evenodd" fill-rule="evenodd"><path d="m1 20h25.2857v-17h-25.2857z" fill="#083d7a"/><path d="m34.7144 45.5h25.2857v-17h-25.2857z" fill="#083d7a"/><path d="m1 45.5h25.2857v-17h-25.2857z" fill="#df1e35"/><path d="m34.7144 20h25.2857v-17h-25.2857z" fill="#df1e35"/></g><path d="m26.5242 20.2405c-2.1958 2.2144-2.1958 5.8046 0 8.019l1.9916-2.0086c-1.0958-1.105-1.0958-2.8968 0-4.0018zm0 8.019c2.1957 2.2143 5.7558 2.2143 7.9515 0l-1.9916-2.0086c-1.0958 1.1051-2.8725 1.1051-3.9683 0zm7.9515 0c2.1958-2.2144 2.1958-5.8046 0-8.019l-1.9916 2.0086c1.0958 1.105 1.0958 2.8968 0 4.0018z" fill="#0f6d1a" mask="url(#b)"/><path clip-rule="evenodd" d="m30.5 25.6667c.7758 0 1.4047-.6343 1.4047-1.4167s-.6289-1.4167-1.4047-1.4167c-.7759 0-1.4048.6343-1.4048 1.4167s.6289 1.4167 1.4048 1.4167z" fill="#042f60" fill-rule="evenodd"/></g></svg>

<svg width="61" height="53" viewBox="0 0 61 53" fill="none" xmlns="http://www.w3.org/2000/svg">
<rect x="1.53036" y="3.53036" width="57.9393" height="41.4393" rx="3.7125" fill="white" stroke="#F5F5F5" stroke-width="1.06071"/>
<mask id="mask0" mask-type="alpha" maskUnits="userSpaceOnUse" x="1" y="3" width="59" height="43">
<rect x="1.53036" y="3.53036" width="57.9393" height="41.4393" rx="3.7125" fill="white" stroke="white" stroke-width="1.06071"/>
</mask>
<g mask="url(#mask0)">
<path fill-rule="evenodd" clip-rule="evenodd" d="M1 20H26.2857V3H1V20Z" fill="#083D7A"/>
<path fill-rule="evenodd" clip-rule="evenodd" d="M34.7144 45.5H60.0001V28.5H34.7144V45.5Z" fill="#083D7A"/>
<path fill-rule="evenodd" clip-rule="evenodd" d="M1 45.5H26.2857V28.5H1V45.5Z" fill="#DF1E35"/>
<path fill-rule="evenodd" clip-rule="evenodd" d="M34.7144 20H60.0001V3H34.7144V20Z" fill="#DF1E35"/>
<mask id="path-7-inside-1" fill="white">
<path fill-rule="evenodd" clip-rule="evenodd" d="M27.52 21.2448C25.8742 22.9045 25.8742 25.5955 27.52 27.2552C29.1658 28.9149 31.8341 28.9149 33.4799 27.2552C35.1257 25.5955 35.1257 22.9045 33.4799 21.2448"/>
</mask>
<path d="M26.5242 20.2405C24.3284 22.4549 24.3284 26.0451 26.5242 28.2595L28.5158 26.2509C27.42 25.1459 27.42 23.3541 28.5158 22.2491L26.5242 20.2405ZM26.5242 28.2595C28.7199 30.4738 32.28 30.4738 34.4757 28.2595L32.4841 26.2509C31.3883 27.356 29.6116 27.356 28.5158 26.2509L26.5242 28.2595ZM34.4757 28.2595C36.6715 26.0451 36.6715 22.4549 34.4757 20.2405L32.4841 22.2491C33.5799 23.3541 33.5799 25.1459 32.4841 26.2509L34.4757 28.2595Z" fill="#0F6D1A" mask="url(#path-7-inside-1)"/>
<path fill-rule="evenodd" clip-rule="evenodd" d="M30.5 25.6667C31.2758 25.6667 31.9047 25.0324 31.9047 24.25C31.9047 23.4676 31.2758 22.8333 30.5 22.8333C29.7241 22.8333 29.0952 23.4676 29.0952 24.25C29.0952 25.0324 29.7241 25.6667 30.5 25.6667Z" fill="#042F60"/>
</g>
</svg>
